data/sheikah/m.svg

<!-- Generated by IcoMoon.io -->
<svg version="1.1" xmlns="http://www.w3.org/2000/svg" width="1024" height="1024" viewBox="0 0 1024 1024">
<title></title>
<g id="icomoon-ignore">
</g>
<path d="M153.5 273l119.5-119.5h478l119.5 119.5h-717zM870.5 751l-119.5 119.5h-478l-119.5-119.5h717zM153.5 671.5h119.5v-119.5h-119.5v119.5zM352.5 671.5h119.5v-199.5l-119.5-119.5h-199v119.5h199v199.5zM552 671.5v-199.5l119.5-119.5h199v119.5h-199v199.5h-119.5zM751 552h119.5v119.5h-119.5v-119.5z"></path>
</svg>

<svg xmlns="http://www.w3.org/2000/svg" width="1024" height="1024" viewBox="0 0 1024 1024">
  <title/>
  <path d="M153.5 273 273 153.5h478L870.5 273zm717 478L751 870.5H273L153.5 751zm-717-79.5H273V552H153.5zm199 0H472V472L352.5 352.5h-199V472h199zm199.5 0V472l119.5-119.5h199V472h-199v199.5zM751 552h119.5v119.5H751z"/>
</svg>
